X:1
T:O Babe in manger lying - Barnby
T:#
%%score [ ( 1 2 ) ( 3 4 ) ]
L:1/8
Q:1/4=120
M:4/4
K:C
V:1 treble nm="MusicXML Part"
V:2 treble 
V:3 bass nm="MusicXML Part"
V:4 bass 
V:1
"^W. Chatterton Dix\n(1837-1898)""^O Babe! in manger lying" E2 | E2 E2 F2 ED | E4 E2 A2 | %3
 c2 c2 B2 A^G | A6 E2 | E2 E2 F2 E"^Joseph Barnby\n(1838-96)"D |[M:4/4] E4 E2 c2 | B2 AG A2 G^F | %8
 E6 E2 | B2 B2 c2 BA | B4 E2 e2 | d2 c2 B2 A2 | ^G4 E4 |[K:A] c2 c2 B^A Bc | A4 E2 E2 | %15
 e2 e2 dc de | c4 A2 A2 | f2 e2 d2 c2 | (B2 A2) G2 F2 | E2 A2 AG AB | A6 |:[K:C] z2 E2 | %22
 E2 E2 F2 ED | E4 E2 A2 | c2 c2 B2 A^G | A6 E2 | E2 E2 F2 ED | E4 E2 c2 | B2 AG A2 G^F | E6 E2 | %30
 B2 B2 c2 BA | B4 E2 e2 | d2 c2 B2 A2 | ^G4 E4 |[K:A] c2 c2 B^A Bc | A4 E2 E2 | e2 e2 dc de | %37
 c4 A2 A2 | f2 e2 d2 c2 | (B2 A2) G2 F2 | E2 A2 AG AB | A6 :: z2 E2 | E2 E2 =F2 ED | E4 E2 A2 | %45
 =c2 c2 B2 AG | A6 E2 | E2 E2 =F2 ED | E4 E2 =c2 | B2 A=G A2 GF | E6 E2 | B2 B2 =c2 BA | B4 E2 e2 | %53
 d2 =c2 B2 A2 | G4 E4 | c2 c2 B^A Bc | A4 E2 E2 | e2 e2 dc de | c4 A2 A2 | f2 e2 d2 c2 | %60
 (B2 A2) G2 F2 | E2 A2 AG AB | A6 :| %63
V:2
 E2 | C2 C2 B,2 B,2 | C4 C2 E2 | C2 E2 D2 D2 | C6 E2 | C2 C2 B,2 CD |[M:4/4] C4 C2 E2 | %7
w: O|Babe! in man- ger|ly- ing, O|child most fair to|see, The|first- fruits of the *|Gen- tiles, By|
w: |||||||
 E2 E2 ^D2 D2 | E6 E2 | E2 E2 E2 E2 | E4 E2 E2 | E2 E2 F2 D2 | E4 D4 |[K:A] C2 E2 D2 E2 | %14
w: star were led to|thee; We|now with joy- ful|wor- ship Do|haste to Beth- l'hem|town, To|greet thee with thy|
w: |||||||
 (C2 E2) D2 E2 | C2 C2 B,2 E2 | (E2 C2) D2 E2 | F2 F2 F2 F2 | F4 E2 =D2 | C2 ^D2 E2 E2 | E6 |: %21
w: Moth­ * er, to|greet thee with thy|Moth­ * er, to|greet thee with thy|Moth- er And|humb- ly there fall|down.|
w: |||||||
[K:C] z2 E2 | C2 C2 B,2 B,2 | C4 C2 E2 | C2 E2 D2 D2 | C6 E2 | C2 C2 B,2 CD | C4 C2 E2 | %28
w: Full|sweet the mer- ry|chant- ing The|an- gel choirs do|make, With|such for march- ing *|mus- ic Who|
w: A|good- ly band we|gath- er And|some are sick and|sad, While|oth- ers are right *|mer- ry, And|
 E2 E2 ^D2 D2 | E6 E2 | E2 E2 E2 E2 | E4 E2 E2 | E2 E2 F2 D2 | E4 D4 |[K:A] C2 E2 D2 E2 | %35
w: would not tra- vel|take? Though|wind be sharp and|pierc- ing, And|snow lie deep to-|night, Much|cheer and good a-|
w: sing, they be so|glad: But|this dear Child, all|sor- row Will|kind- ly take a-|way, And|crown the joy- ful-|
 (C2 E2) D2 E2 | C2 C2 B,2 E2 | (E2 C2) D2 E2 | F2 F2 F2 F2 | F4 E2 =D2 | C2 ^D2 E2 E2 | E6 :: %42
w: waits * us, much|cheer and good a-|waits * us, much|cheer and good a-|waits us, And|love shall warm us|quite.|
w: heart­ * ed, and|crown the joy- ful-|heart­ * ed, and|crown the joy- ful-|heart- ed With|bliss that lasts for|aye.|
 z2 E2 | =C2 C2 B,2 B,2 | =C4 C2 E2 | =C2 E2 D2 D2 | =C6 E2 | =C2 C2 B,2 CD | =C4 C2 E2 | %49
w: The|Star o'er- head burns|bright- ly, And|we go on a-|pace; And|pre- sent- ly are *|spy- ing A|
w: Sweet|Babe! most con- des-|cend- ing, O|by thy spot- less|birth, Let|light a- rise in *|dark- ness, And|
 E2 E2 ^D2 D2 | E6 E2 | E2 E2 E2 E2 | E4 E2 E2 | E2 E2 =F2 D2 | E4 D4 | C2 E2 D2 E2 | %56
w: mean and shame- ful|place. There|come, we make low|knock- ing, The|shep- herds ope the|door, And|straight- way Christ our|
w: peace come to the|earth; Rest|for the hea- vy-|la- den, And|joy for those that|weep, In|Beth- le- hem in|
 (C2 E2) D2 E2 | C2 C2 B,2 E2 | (E2 C2) D2 E2 | F2 F2 F2 F2 | F4 E2 =D2 | C2 ^D2 E2 E2 | E6 :| %63
w: Sav­ * iour, and|straight- way Christ our|Sav­ * iour, and|straight- way Christ our|Sav- iour We|wor- ship and imp-|lore.|
w: Jew­ * ry, in|Beth- le- hem in|Jew­ * ry, in|Beth- le- hem in|Jew- ry Our|God doth al- ways|keep.|
V:3
 E,2 | E,2 E,2 D,2 E,F, | E,4 A,2 A,2 | A,2 E,2 ^G,2 B,2 | A,6 E,2 | E,2 E,2 D,2 E,F, | %6
[M:4/4] E,4 E,2 A,2 | G,2 B,2 ^F,2 A,2 | G,6 E,2 | ^G,2 G,2 A,2 C2 | ^G,4 G,2 C2 | B,2 A,2 D2 A,2 | %12
 B,4 ^G,4 |[K:A] A,2 E,2 F,2 G,2 | (A,2 E,2) F,2 G,2 | A,2 E,2 F,2 G,2 | A,4 A,2 A,2 | %17
 A,2 ^A,2 B,2 E2 | (D2 C2) B,2 A,B, | C2 A,2 B,2 !courtesy!=D2 | C6 |:[K:C] z2 E,2 | %22
 E,2 E,2 D,2 E,F, | E,4 A,2 A,2 | A,2 E,2 ^G,2 B,2 | A,6 E,2 | E,2 E,2 D,2 E,F, | E,4 E,2 A,2 | %28
 G,2 B,2 ^F,2 A,2 | G,6 E,2 | ^G,2 G,2 A,2 C2 | ^G,4 G,2 C2 | B,2 A,2 D2 A,2 | B,4 ^G,4 | %34
[K:A] A,2 E,2 F,2 G,2 | (A,2 E,2) F,2 G,2 | A,2 E,2 F,2 G,2 | A,4 A,2 A,2 | A,2 ^A,2 B,2 E2 | %39
 (D2 C2) B,2 A,B, | C2 A,2 B,2 !courtesy!=D2 | C6 :: z2 E,2 | E,2 E,2 D,2 E,=F, | E,4 A,2 A,2 | %45
 A,2 E,2 G,2 B,2 | A,6 E,2 | E,2 E,2 D,2 E,=F, | E,4 E,2 A,2 | =G,2 B,2 F,2 A,2 | =G,6 E,2 | %51
 G,2 G,2 A,2 =C2 | G,4 G,2 =C2 | B,2 A,2 D2 A,2 | B,4 G,4 | A,2 E,2 F,2 G,2 | (A,2 E,2) F,2 G,2 | %57
 A,2 E,2 F,2 G,2 | A,4 A,2 A,2 | A,2 ^A,2 B,2 E2 | (D2 C2) B,2 A,B, | C2 A,2 B,2 !courtesy!=D2 | %62
 C6 :| %63
V:4
 E,2 | A,,2 A,,2 A,,2 A,,2 | A,,4 A,,2 C,2 | E,2 E,2 E,2 E,2 | A,6 E,2 | A,,2 A,,2 A,,2 A,,2 | %6
[M:4/4] A,,4 A,,2 A,,2 | B,,2 B,,2 B,,2 B,,2 | E,6 E,2 | ^G,2 E,2 A,2 C,2 | E,4 E,2 C2 | %11
 ^G,2 A,2 D,2 F,2 | E,4 E,4 |[K:A] A,,2 A,,2 A,,2 A,,2 | A,,4 A,,2 A,,2 | A,,2 A,,2 A,,2 A,,2 | %16
 A,,4 B,,2 C,2 | D,2 F,2 B,,2 C,2 | (D,2 ^D,2) E,2 F,G, | A,2 F,2 E,2 E,2 | A,,6 |:[K:C] z2 E,2 | %22
 A,,2 A,,2 A,,2 A,,2 | A,,4 A,,2 C,2 | E,2 E,2 E,2 E,2 | A,6 E,2 | A,,2 A,,2 A,,2 A,,2 | %27
 A,,4 A,,2 A,,2 | B,,2 B,,2 B,,2 B,,2 | E,6 E,2 | ^G,2 E,2 A,2 C,2 | E,4 E,2 C2 | %32
 ^G,2 A,2 D,2 F,2 | E,4 E,4 |[K:A] A,,2 A,,2 A,,2 A,,2 | A,,4 A,,2 A,,2 | A,,2 A,,2 A,,2 A,,2 | %37
 A,,4 B,,2 C,2 | D,2 F,2 B,,2 C,2 | (D,2 ^D,2) E,2 F,G, | A,2 F,2 E,2 E,2 | A,,6 :: z2 E,2 | %43
 A,,2 A,,2 A,,2 A,,2 | A,,4 A,,2 =C,2 | E,2 E,2 E,2 E,2 | A,6 E,2 | A,,2 A,,2 A,,2 A,,2 | %48
 A,,4 A,,2 A,,2 | B,,2 B,,2 B,,2 B,,2 | E,6 E,2 | G,2 E,2 A,2 =C,2 | E,4 E,2 =C2 | %53
 G,2 A,2 D,2 =F,2 | E,4 E,4 | A,,2 A,,2 A,,2 A,,2 | A,,4 A,,2 A,,2 | A,,2 A,,2 A,,2 A,,2 | %58
 A,,4 B,,2 C,2 | D,2 F,2 B,,2 C,2 | (D,2 ^D,2) E,2 F,G, | A,2 F,2 E,2 E,2 | A,,6 :| %63

